X: 1408
T: Lord McDonald
M:C|
L:1/8
B:O'Neill's 1408
Z:"Transcribed by Bob Safranek, rjs@gsp.org"
K:G
B | d3 e dBgB | dBgB aAAB | d3 e dBgB | AcBA BGGB |
    Bdde dBgB | dBgB aAAc | Bdde dBgB | AcBA BG G ||
B | dgbg agbg | dgbg ageg | dgbg agbg | dedc BGGE |
    DGBG AGEG | DGBG AGEG | BAGF GFED | EFGA BG G |]


